packages/icons/src/assets/arrow-down.svg

<svg width="16" height="16" viewBox="0 0 16 16" fill="none" xmlns="http://www.w3.org/2000/svg">
<path d="M8.35742 14.3888C8.10567 14.5624 7.76275 14.5332 7.54102 14.3019L2 8.51282L2.91797 7.55481L7.35156 12.1857L7.35156 1.50012H8.64844L8.64844 12.1876L13.0811 7.55481L13.541 8.03333L14 8.51282L8.45898 14.3019L8.35742 14.3888Z" fill="#0A0A0A"/>
</svg>

<svg xmlns="http://www.w3.org/2000/svg" width="16" height="16" viewBox="0 0 16 16"><path d="M8.357 14.389a.63.63 0 0 1-.816-.087L2 8.512l.918-.957 4.434 4.63V1.5h1.296v10.688l4.433-4.633.46.478.459.48-5.541 5.789z"/></svg>
